!!!OTL: No_25_Second_Song_of_the_Mî'nîsîno'wuck.krn
!!!REG: Great Lakes
!!!SOCIAL_FUNCTION: songs of war
**kern	**kern
*staff2	*staff1
=1-	=1-
*clefF4	*clefG2
*k[f#c#g#d#]	*k[f#c#g#d#]
*M5/4	*M5/4
8GG#/L	4f#/
8GG#/	.
8GG#/	8.f#/L
8GG#/	.
.	16g#/K
8GG#/	8.g#/
8GG#/J	.
.	16f#/Jk
8GG#/L	4f#/
8GG#/	.
8GG#/	4f#/
8GG#/J	.
=2	=2
1r	4f#/
.	8.e/L
.	16f#/K
.	8.f#/
.	16e/Jk
.	4e/
4r	4e/
*	*clefF4
=3	=3
1r	4B\
.	8.B\L
.	16B\K
.	8.B\
.	16B\Jk
.	4B\
4r	[4B\
=4||	=4||
*M2/4	*M2/4
2r	4B\]
.	4c#\
=5||	=5||
*M5/4	*M5/4
1r	4c#\
.	8.B\L
.	16B\K
.	8.B\
.	16B\Jk
.	4B\
4r	4B\
=6	=6
1r	4c#\
.	8.c#\L
.	16e\K
.	8.e\
.	16e\Jk
.	4e\
4r	4e\
=7	=7
1r	4c#\
.	8.c#\L
.	16f#\K
.	8.f#\
.	16e\Jk
.	4e\
4r	4e\
=8	=8
1r	4B\
.	8.B\L
.	16B\K
.	8.B\
.	16B\Jk
.	4B\
4r	[4B\
=9||	=9||
*M2/4	*M2/4
2r	4B\]
.	4c#\
=10||	=10||
*M5/4	*M5/4
1r	4c#\
.	8.B\L
.	16B\K
.	8.B\
.	16B\Jk
.	4B\
4r	4A\
=11	=11
1r	4B\
.	8.B\L
.	16c#\K
.	8.c#\
.	16B\Jk
.	4B\
4r	4B\
=12	=12
1r	4F#\
.	8.F#\L
.	16G#\K
.	8.G#\
.	16F#\Jk
.	4F#\
4r	4F#\
=13	=13
1r	4F#\
.	8.G#\L
.	16F#\K
.	8.F#\
.	16E\Jk
.	4E\
4r	4E\
==	==
*-	*-
